X:1
T:Title
%%score { 1 | ( 2 3 ) }
L:1/8
Q:1/4=112
M:4/4
K:Bb
V:1 treble nm="Grand Piano"
V:2 bass 
V:3 bass 
V:1
 [DB]2 [DF]2 [Fd]2 [Fc]2 | [FB]4 [DF]4 | [EG]2 [FB]2 [Fe]2 [Fd]2 | c6 z2 | c2 F2 c2 F2 | c4 [Fd]4 | %6
w: Geo.~C.~Hugg * * *||||||
 c2 B2 A2 [=EG]2 | F6 z2 | [_Af]2 [Af]2 [Ge]2 [Fd]2 | [Fc]4 [Fd]4 | [Ee]2 [Ge]2 [Fd]2 [Fc]2 | %11
w: |||||
 [Fd]6 z2 | B2 B2 c2 d2 | f2 [Ge]2 [Fd]2 [Gc]2 | B2 d2 c3 [DB] | [DB]6 z2 | %16
w: |||||
 [DB]2 [DF]2 [Fd]2 [Fc]2 | [FB]4 [DF]4 | [EG]2 [FB]2 [Ge]2 [DFd]2 | c6 z2 | c2 [Fc]2 [Fd]2 [Fe]2 | %21
w: |||||
 [_Af]4 [GB]2 c2 | d2 B2 c3 [DB] | [DB]6 z2 |] %24
w: |||
V:2
 [B,,F,]2 [B,,B,]2 [B,,B,]2 [C,A,]2 | [D,B,]4 [B,,B,]4 | [E,B,]2 [D,B,]2 [C,A,]2 [B,,B,]2 | %3
 [F,A,F]6 z2 | [F,A,E]2 [F,A,E]2 [F,A,E]2 [F,A,E]2 | [F,A,E]4 [B,,B,]4 | %6
 [A,CF]2 [B,DF]2 [CF]2[K:bass] [C,B,]2 | [F,A,]6 z2 | [D,B,]2 [D,B,]2 [E,B,]2 [F,B,]2 | %9
 [F,A,]4 [B,,B,]4 | [C,G,]2 [C,C]2 [F,B,]2 [F,A,]2 | [B,,B,]6 z2 | %12
 [B,D]2 [_A,B,D]2 [G,B,=E]2 [F,B,F]2 | [B,,D_A]2 [C,C]2 [D,B,]2 [E,C]2 | %14
 [F,DF]2 [F,B,F]2 [F,A,E]3 [B,,B,] | [B,,B,]6 z2 | [B,,F,]2 [B,,B,]2 [B,,B,]2 [C,A,]2 | %17
 [D,B,]4 [B,,B,]4 | [E,B,]2 [D,B,]2 [C,C]2 D,E, | [F,A,F]6 z2 | [F,A,F]2 [E,A,]2 [D,B,]2 [C,A,]2 | %21
 [B,,B,]4 z2[K:treble] ^F2 | [F,B,F]2[K:bass] [F,B,D]2 [F,A,E]3 [B,,B,] | [B,,B,]6 z2 |] %24
V:3
 x8 | x8 | x8 | x8 | x8 | x8 | x6[K:bass] x2 | x8 | x8 | x8 | x8 | x8 | x8 | x8 | x8 | x8 | x8 | %17
 x8 | x8 | x8 | x8 | z4 [E,B,]4[K:treble] | x2[K:bass] x6 | x8 |] %24

